!!!COM: Bach, Johann Sebastian
!!!OTL: Sinfonia 11
!!!ONM: 11
!!!SCT: BWV 797
**kern	**fb	**kern	**kern
*staff3	*	*staff2	*staff1
*clefF4	*	*clefG2	*clefG2
*k[b-e-]	*	*k[b-e-]	*k[b-e-]
*g	*	*g	*g
*M3/8	*	*M3/8	*M3/8
=1	=1	=1	=1
4G	.	4.r	16r
.	12	.	16ddL
.	10	.	16b-
.	8	.	16g
8E-	17	.	8ggJ
=2	=2	=2	=2
4D	17	16r	4.ff
.	17 12	16aL	.
.	17 10	16f	.
.	17 8	16d	.
8B-	12 10	[8ddJ	.
=3	=3	=3	=3
4G	13 12	8.dd]L	4.ee-
.	13 10	16b-	.
8A	12 10	[8ccJ	.
=4	=4	=4	=4
16B-L	10 9	8.cc]L	4.dd
16d	8 7	.	.
16B-	10 9	.	.
16G	12 9	16a	.
[8gJ	5 3	8b-J	.
=5	=5	=5	=5
8.g]L	4 2	4.a	4cc
16e	6 4	.	.
8f#J	6 3	.	8dd
=6	=6	=6	=6
4g	3 2	16aL	8.b-L
.	3 #2	16f#J	.
.	3 1	[4g	.
.	3 1	.	16b-
8c	10 5	.	8ee-J
=7	=7	=7	=7
4d	5 4	4g]	8.aL
.	6 4	.	16b-
8D	14 10	8f#	8ccJ
=8	=8	=8	=8
16GL	10 8	4.g	4.b-
16D	13 11	.	.
16BB-	15 13	.	.
16GG	17 15	.	.
8GJ	10 8	.	.
*-	*-	*-	*-